dist/img/svg/ic-goal.svg

<svg width="32" height="32" viewBox="0 0 32 32" fill="none" xmlns="http://www.w3.org/2000/svg">
<g clip-path="url(#clip0)">
<path d="M16.8875 17.1317V17.1804L16.9363 17.1816C20.7261 17.2764 24.2679 17.9447 26.9937 19.0867C30.2047 20.432 31.95 22.3113 31.95 24.3675C31.95 26.4236 30.2047 28.303 26.9937 29.6482C24.0443 30.8838 20.14 31.5655 16 31.5655C11.86 31.5655 7.9557 30.8839 5.00626 29.6482C1.79529 28.303 0.05 26.4235 0.05 24.3675C0.05 22.3114 1.79529 20.432 5.00626 19.0867C7.73213 17.9447 11.274 17.2764 15.0638 17.1816L15.1125 17.1804V17.1317V1.32422C15.1125 0.834083 15.5099 0.436719 16 0.436719C16.4901 0.436719 16.8875 0.834083 16.8875 1.32422V1.52941V1.59695L16.9521 1.57723C19.33 0.851137 21.3984 1.48243 23.4233 2.10278L23.4379 2.05497L23.4233 2.10278L23.4252 2.10336C25.4202 2.71438 27.494 3.34955 30.1488 2.86089L30.1397 2.81172L30.1488 2.86089C30.5147 2.79344 30.8836 2.96147 31.0732 3.28151L31.1162 3.25603L31.0732 3.28151C31.2627 3.60154 31.2326 4.00583 30.9977 4.29426L27.6679 8.38164L27.6417 8.4137L27.6683 8.44537L30.9893 12.4014L31.0276 12.3693L30.9893 12.4014C31.1925 12.6434 31.2517 12.975 31.1448 13.2723L31.1918 13.2892L31.1448 13.2723C31.0379 13.5696 30.7811 13.7876 30.4704 13.8449C29.6913 13.9883 28.9567 14.0489 28.2607 14.0489C26.2038 14.049 24.479 13.5208 22.9035 13.0382L22.8998 13.0371C20.755 12.3801 19.0112 11.8459 16.9184 12.7108L16.8875 12.7236V12.757V17.1317ZM16.9185 3.47251L16.8876 3.48528V3.51872V10.7678V10.8354L16.9522 10.8157C19.3301 10.0895 21.3985 10.7209 23.4234 11.3411L23.4235 11.3411C24.9742 11.816 26.5744 12.3061 28.4563 12.2713L28.561 12.2693L28.4937 12.1891L25.8105 8.99276L25.7722 9.02491L25.8105 8.99275C25.5366 8.66657 25.5331 8.19182 25.8021 7.86161L28.2214 4.89186L28.2873 4.81096L28.1829 4.81028C26.1604 4.79721 24.459 4.27628 22.9035 3.79985L22.8998 3.79871C20.7549 3.14177 19.0111 2.60769 16.9185 3.47251ZM16.9394 22.8175L16.8875 22.8156V22.8675V23.9904C16.8875 24.4805 16.4901 24.8779 16 24.8779C15.5099 24.8779 15.1125 24.4805 15.1125 23.9904V22.8675V22.8156L15.0606 22.8175C13.5265 22.8744 12.0842 23.0693 10.9257 23.3821C10.2592 23.562 9.7915 23.7528 9.4727 23.9208C9.15499 24.0883 8.98236 24.2346 8.90924 24.3273L8.88482 24.3583L8.90924 24.3892C8.98236 24.482 9.155 24.6283 9.47273 24.7957C9.79153 24.9638 10.2592 25.1545 10.9257 25.3345C12.318 25.7104 14.1201 25.9169 16 25.9169C17.8799 25.9169 19.682 25.7104 21.0743 25.3345C21.7408 25.1545 22.2085 24.9637 22.5273 24.7957C22.845 24.6283 23.0176 24.482 23.0908 24.3892L23.1152 24.3583L23.0908 24.3273C23.0176 24.2346 22.845 24.0883 22.5273 23.9208C22.2085 23.7528 21.7408 23.562 21.0743 23.3821C19.9158 23.0693 18.4735 22.8744 16.9394 22.8175ZM15.1125 19.0071V18.9558L15.0612 18.9571C11.1469 19.0586 7.84343 19.7885 5.51679 20.8007C4.35363 21.3068 3.43252 21.8843 2.80139 22.491C2.17073 23.0973 1.825 23.7374 1.825 24.3675C1.825 25.0225 2.19848 25.6883 2.87751 26.3159C3.55716 26.9441 4.54813 27.5391 5.79692 28.0533C8.29483 29.0818 11.8328 29.7905 16 29.7905C20.1672 29.7905 23.7052 29.0818 26.2031 28.0533C27.4519 27.5391 28.4428 26.9441 29.1225 26.3159C29.8015 25.6883 30.175 25.0225 30.175 24.3675C30.175 23.7374 29.8293 23.0973 29.1986 22.491C28.5675 21.8843 27.6464 21.3068 26.4832 20.8007C24.1566 19.7885 20.8531 19.0586 16.9388 18.9571L16.8875 18.9558V19.0071V20.9913V21.0396L16.9358 21.0413C18.8116 21.1056 20.5566 21.3622 21.9247 21.7798C22.7562 22.0337 23.4208 22.3391 23.9021 22.6865C24.7305 23.2844 24.8999 23.9281 24.8999 24.3583C24.8999 24.7884 24.7305 25.4321 23.9021 26.03C23.4208 26.3774 22.7562 26.6828 21.9247 26.9367C20.3312 27.4232 18.227 27.6918 16 27.6918C13.773 27.6918 11.6689 27.4232 10.0753 26.9367C9.24382 26.6828 8.57916 26.3774 8.09789 26.03C7.26946 25.4321 7.10013 24.7884 7.10013 24.3583C7.10013 23.9281 7.26946 23.2844 8.09789 22.6865C8.57916 22.3391 9.24376 22.0337 10.0753 21.7798C11.4434 21.3622 13.1883 21.1056 15.0642 21.0413L15.1125 21.0396V20.9913V19.0071Z" fill="#E78238" stroke="#F5F7FC" stroke-width="0.1"/>
</g>
<defs>
<clipPath id="clip0">
<rect width="32" height="32" fill="white" transform="translate(0 0.000976562)"/>
</clipPath>
</defs>
</svg>

<svg width="32" height="32" viewBox="0 0 32 32" fill="none" xmlns="http://www.w3.org/2000/svg"><g clip-path="url(#clip0)"><path d="M16.887 17.132v.048l.05.002c3.79.094 7.33.763 10.057 1.905 3.21 1.345 4.956 3.224 4.956 5.28 0 2.057-1.745 3.936-4.956 5.281-2.95 1.236-6.854 1.918-10.994 1.918s-8.044-.682-10.994-1.918C1.796 28.303.05 26.424.05 24.368c0-2.057 1.745-3.936 4.956-5.281 2.726-1.142 6.268-1.81 10.058-1.905l.049-.002V1.324a.888.888 0 011.774 0v.273l.065-.02c2.378-.726 4.446-.095 6.471.526l.015-.048-.015.048h.002c1.995.611 4.069 1.247 6.724.758l-.01-.05.01.05c.366-.068.735.1.924.42l.043-.025-.043.026c.19.32.16.724-.075 1.012l-3.33 4.088-.026.032.026.031 3.321 3.956.039-.032-.039.032a.887.887 0 01.156.871l.047.017-.047-.017a.888.888 0 01-.675.573c-.779.143-1.513.204-2.21.204-2.056 0-3.781-.528-5.357-1.01l-.003-.002c-2.145-.657-3.889-1.191-5.982-.326l-.03.013v4.408zm.032-13.66l-.031.013v7.35l.064-.02c2.378-.726 4.446-.094 6.471.526h0c1.551.475 3.151.965 5.033.93l.105-.002-.067-.08-2.683-3.196-.039.032.039-.032a.887.887 0 01-.009-1.131l2.42-2.97.065-.081h-.104c-2.023-.014-3.724-.535-5.28-1.011l-.003-.001c-2.145-.657-3.889-1.191-5.981-.326zm.02 19.345l-.052-.001v1.174a.888.888 0 01-1.774 0v-1.174l-.052.002c-1.534.056-2.977.251-4.135.564-.667.18-1.135.37-1.453.539-.318.167-.49.314-.564.406l-.024.031.024.031c.073.093.246.24.564.407.319.168.786.358 1.453.538 1.392.376 3.194.583 5.074.583s3.682-.207 5.074-.583c.667-.18 1.134-.37 1.453-.538.318-.168.49-.314.564-.407l.024-.03-.024-.032c-.073-.092-.246-.239-.564-.406-.319-.168-.786-.359-1.453-.539-1.158-.313-2.6-.508-4.135-.565zm-1.826-3.81v-.051l-.052.001c-3.914.102-7.218.831-9.544 1.844-1.163.506-2.084 1.083-2.716 1.69-.63.606-.976 1.246-.976 1.877 0 .655.373 1.32 1.053 1.948.68.628 1.67 1.223 2.919 1.737 2.498 1.029 6.036 1.738 10.203 1.738s7.705-.71 10.203-1.738c1.249-.514 2.24-1.109 2.92-1.737.678-.628 1.052-1.293 1.052-1.948 0-.63-.346-1.27-.976-1.877-.632-.607-1.553-1.184-2.716-1.69-2.326-1.012-5.63-1.742-9.544-1.844l-.052-.001v2.084l.049.001c1.876.065 3.62.321 4.989.739.831.254 1.496.56 1.977.906.828.598.998 1.242.998 1.672 0 .43-.17 1.074-.998 1.672-.481.347-1.146.653-1.977.907-1.594.486-3.698.755-5.925.755s-4.331-.269-5.925-.755c-.831-.254-1.496-.56-1.977-.907-.829-.598-.998-1.242-.998-1.672 0-.43.17-1.074.998-1.672.481-.347 1.146-.652 1.977-.906 1.368-.418 3.113-.674 4.99-.739l.048-.001v-2.033z" fill="#E78238" stroke="#F5F7FC" stroke-width=".1"/></g><defs><clipPath id="clip0"><path fill="#fff" transform="translate(0 .001)" d="M0 0h32v32H0z"/></clipPath></defs></svg>
